X:1
T:Feux d'artifice
T:Feux d'artifice
T:(Fireworks) No 12 from Préludes Book 2 
T:Claude Debussy (1862-1918) 
C:Claude Debussy (1862-1918)
%%score { ( 1 4 ) | ( 2 5 ) | ( 3 6 ) }
L:1/8
Q:1/8=144
M:4/8
K:F
V:1 treble nm="Grand Piano" snm="Pno."
V:4 treble 
V:2 treble 
V:5 treble 
V:3 treble 
V:6 treble 
V:1
"^Modérément animé""^léger, égal et lointain" z4 | z4 | .[dd']/ z/ z z2 | .[_a_a']/ z/ z z2 | %4
!8va(! .[d'd'']/!8va)! z/ z z2 | .[_a_a']/ z/ z z2 |"^marqué" .!^![CD] z z2 | %7
!pp!!8va(! .[d'c''d'']!8va)! z z2 |"^marqué" .!^![CD] z z2 |!pp!!8va(! .[d'c''d'']!8va)! z z2 | %10
 z .[dd']/ z/ z!8va(! .[_a_a']/ z/ | %11
"_en se rapprochant peu à peu""_cresc." z .[d'd'']/ z/ z .[_a_a']/!8va)! z/ | %12
 z .[dd']/ z/ z!8va(! .[_a_a']/ z/ | z .[d'd'']/ z/ z .[_a_a']/!8va)! z/ | %14
!mp! x2[I:staff +1] (3(f/4g/4a/4[I:staff -1](3b/4_a/4_g/4[I:staff +1] (3f/4=g/4=a/4[I:staff -1](3b/4_a/4_g/4) | %15
!8va(![I:staff +1] (3(f'/4=g'/4=a'/4[I:staff -1](3b'/4_a'/4_g'/4[I:staff +1] (3f'/4=g'/4=a'/4[I:staff -1](3b'/4_a'/4_g'/4[I:staff +1] (3f'/4=g'/4=a'/4[I:staff -1](3b'/4_a'/4_g'/4[I:staff +1] (3f'/4=g'/4=a'/4[I:staff -1](3b'/4_a'/4_g'/4) | %16
!f! (15:8:30(1:1:5(b'/4_a'/4_g'/4_e'/4!-(!_d'/4!8va)! (1:1:5x/4x/4x/4x/4x/4 (1:1:5x/4x/4x/4x/4x/4[K:bass] (1:1:15(15:8:5x/4x/4x/4x/4x/4 (15:8:5x/4x/4x/4x/4x/4!8vb(! (15:8:5x/4x/4x/4x/4x/4 | %17
 x)!8vb)! x x2 |[K:treble] x4 | x4 | z4 | z4 | x4 | %23
 x2!8va(![I:staff +1] (6:4:6.=b'/4[I:staff -1].[c''_d'']/4[I:staff +1].b'/4[I:staff -1].[c''d'']/4[I:staff +1].c''/4[I:staff -1].[d''_e'']/4[I:staff +1] (6:4:6.b'/4[I:staff -1].[c''d'']/4[I:staff +1].b'/4[I:staff -1].[c''d'']/4[I:staff +1].c''/4[I:staff -1].[d''e'']/4 | %24
!f! (15:8:14(1:1:5(e''/4d''/4c''/4b'/4g'/4!8va)![I:staff +1](1:1:5e'/4d'/4c'/4b/4g/4[I:staff -1]e/4d/4c/4B/4) (15:8:14(1:1:5(G/4B/4c/4d/4e/4[I:staff +1](1:1:5g/4b/4c'/4d'/4e'/4!8va(![I:staff -1]g'/4b'/4c''/4d''/4) | %25
 (15:8:14(1:1:5(e''/4d''/4c''/4b'/4g'/4!8va)![I:staff +1](1:1:5e'/4d'/4c'/4b/4g/4[I:staff -1]e/4d/4c/4B/4) (15:8:14(1:1:5(G/4B/4c/4d/4e/4[I:staff +1](1:1:5g/4b/4c'/4d'/4e'/4!8va(![I:staff -1]g'/4b'/4c''/4d''/4) | %26
 (15:8:7(1:1:5x/4 x/4 x/4 x/4 x/4!8va)! x x (3x x!8va(! x | %27
 (15:8:7(1:1:5x/4 x/4 x/4 x/4 x/4!8va)! x x (3x x!8va(! x | %28
 (15:8:7(1:1:5x/4 x/4 x/4 x/4 x/4!8va)! x x (3:2:7x x!8va(! (5:4:5x/4 x/4 x/4 x/4 z/4!8va)! | %29
[M:2/8] (^E/8=B/8^c/8^d/8^e/8=b/8^c'/8^d'/8 ^f'/8e'/8=d'/8=c'/8(6:4:6^f/8=e/8=d/8=c/8^F/8) z/8 | %30
[M:4/8]!8va(! (15:8:7(1:1:5x/4 x/4 x/4 x/4 x/4!8va)! x x (3x x!8va(! x | %31
[M:3/8] (5:4:5x/8 x/8 x/8 x/8 x/8!8va)! x/ x2 |[M:4/8] x4 | x4 | %34
!f!!<(! (!tenuto![Ff]/<!>![_c_c']/-)!<)! [cc']3 | %35
!f!!<(! (!tenuto![Ff]/4[_d_d']/4!>![_c_c']/-)!<)! [cc']3 | %36
 (3!tenuto![Ff]!tenuto![_d_d']!tenuto![_c_c'] (3!tenuto![_e_e']!tenuto![dd']!tenuto![Gg] | %37
[M:6/8]!f!!<(! (!tenuto![Ff]/<!>![_c_c']/-)!<)![cc'] x2 x (7:4:7x/4 x/4 x/4!8va(! x/4 x/4 x/4 x/4 | %38
[M:4/8] (5:4:5x/8 x/8 x/8 x/8 x/8 x/8 x/8 x/8 x/8!8va)! x x2 | x4 ||[K:Db] x4 | %41
!p!{/.B.B} e3/2 z/ z!8va(!{/.b'.b'} .e''/4!8va)! .b/4.e'/4.c/4 | %42
 (3(.B/4.B/4.f/4)e/-e z!8va(!{/.b'.b'} .e''/4!8va)! .b/4.e'/4.c/4 | %43
[M:2/8] z/4 .B/4.g/4._f/4 .=g/4.=f/4.=B/ | %44
[M:4/8]!mf!!<(! ([CGAc]/<[Aa]/)!<)!!mf!!<(! ([cgac']/<[aa']/)!<)!!f!!8va(! (3([=b^d'^f'=b']/.[=ad'f'=a']/)!8va)![I:staff +1].[^c'^d']/[I:staff -1] (3([=B^d^fb]/.[=Adf=a]/)[I:staff +1].[^c^d]/ | %45
!mf!!<(![I:staff -1] ([CGAc]/<[Aa]/)!<)!!mf!!<(! ([cgac']/<[aa']/)!<)!!f!!8va(! (3([=b^d'^f'=b']/.[=ad'f'=a']/)!8va)![I:staff +1].[^c'^d']/[I:staff -1] (3([=B^d^fb]/.[=Adf=a]/)[I:staff +1].[^c^d]/ || %46
[K:C][Q:1/4=75]"^Scherzando"[I:staff -1] z4 | %47
!8va(! (3([b^d'^f'b']/.[ad'f'a']/)!8va)![I:staff +1]!tenuto![^c'^d']/[I:staff -1] (3([B^d^fb]/.[Adfa]/)[I:staff +1]!tenuto![^c^d]/[I:staff -1] x2 | %48
!p! (3([G,C_EG]/.[^F,CE^F]/)[I:staff +1]!tenuto![A,B,]/[I:staff -1] (3([A,^C=EA]/.[G,CEG]/)[I:staff +1]!tenuto![_B,=C]/!<(![I:staff -1] (3([G,C_EG]/.[F,CEF]/)[I:staff +1]!tenuto![A,=B,]/[I:staff -1] (3([DFAd]/.[CFAc]/)!<)!!mf![I:staff +1]!tenuto![_E=F]/ | %49
!pp![I:staff -1] (3([G,C_EG]/.[^F,CE^F]/)[I:staff +1]!tenuto![A,B,]/[I:staff -1] (3([A,^C=EA]/.[G,CEG]/)[I:staff +1]!tenuto![_B,=C]/[I:staff -1] (3([G,C_EG]/.[F,CEF]/)[I:staff +1]!tenuto![A,=B,]/[I:staff -1] (3([DFAd]/.[CFAc]/)[I:staff +1]!tenuto![_E=F]/ | %50
"^poco cresc."[I:staff -1] (3([Gc_eg]/.[^Fce^f]/)[I:staff +1]!tenuto![AB]/[I:staff -1] (3([GBdg]/.[=FBd=f]/)[I:staff +1]!tenuto![_A_B]/[I:staff -1] (3([Gceg]/.[^Fce^f]/)[I:staff +1]!tenuto![=A=B]/[I:staff -1] (3([GBdg]/.[=FBd=f]/)[I:staff +1]!tenuto![_A_B]/ | %51
!mp!"_molto cresc."[I:staff -1] (3([Gc_eg]/.[^Fce^f]/) z/ (3([GBdg]/.[=FBd=f]/) z/ (3([Gceg]/.[^Fce^f]/) z/ (3([GBdg]/.[=FBd=f]/) z/ | %52
!f! (3:2:2x!8va(! x/!8va)! z (3z/ ([CD]/[cd]/)[I:staff +1] (3([^F^G]/[I:staff -1][de]/[d'e']/) | %53
!f! (3:2:2x!8va(! x/!8va)! z (3z/ ([CD]/[cd]/)[I:staff +1] (3([^F^G]/[I:staff -1][de]/[d'e']/) | %54
[Q:1/8=148]"^Retenu"[I:staff +1] (3([_a_b]/[I:staff -1][CD]/[cd]/)[Q:1/8=147][I:staff +1] (3([^FG]/[I:staff -1][de]/[d'e']/)[Q:1/8=146][I:staff +1] (3([c'd']/[I:staff -1][CD]/[cd]/)[Q:1/8=145][I:staff +1] (3([FG]/[I:staff -1][de]/[d'e']/) | %55
[Q:1/8=144][I:staff +1] (3([_a_b]/[I:staff -1][CD]/[cd]/)[Q:1/8=143][I:staff +1] (3([^FG]/[I:staff -1][de]/[d'e']/)[Q:1/8=142]"^\n"[I:staff +1] (3([ab]/[I:staff -1][CD]/[cd]/)[Q:1/8=141][I:staff +1] (3([FG]/[I:staff -1][de]/[d'e']/) || %56
[K:A][Q:1/4=70]"^Mouvt. (plus à l'aise)" (.c' .c) (.^B .^b) | (.c' .c) (.d .d') | %58
 (.f' .f) (.e .e') | (.g' .g) (.f .f') || %60
[K:C][Q:1/4=60]"^Rubato"!pp!!8va(! !tenuto![c'e'g'c'']2!8va)! x2 | %61
!pp!!8va(! !tenuto![c'e'g'c'']2!8va)! x3/2 .[=G=Bdg]/ | %62
!pp!!8va(! !tenuto![_e'_g'_b'_e'']2!8va)! z2 | %63
!pp!!8va(! !tenuto![_e'_g'_b'_e'']2!8va)![I:staff +1] ((!tenuto![=A,^C=E=A]/>[I:staff -1].[=G=B=d=g]/)[I:staff +1] !tenuto!.!tenuto![C^E^G^c]/)!8va(![I:staff -1].[^c'^c'']/ || %64
[K:F#][Q:1/4=50]"^Doux et harmonieux (Molto Rubato)" (27:16:27(1:1:9(d''/16c''/16b'/16g'/16c'/16!8va)![I:staff +1]b/16d/16c/16B/16!>(![I:staff -1] (1:1:9d'/16c'/16b/16g/16c/16[I:staff +1]B/16D/16C/16B,/16[I:staff -1] (1:1:9d/16c/16B/16G/16C/16[I:staff +1]B,/16D,/16C,/16B,,/16)!>)!!ppp!!<(![I:staff -1] x!<)!!pp! !tenuto![Gg]2 | %65
!8va(! (27:16:27(1:1:9(d''/16c''/16b'/16g'/16c'/16!8va)![I:staff +1]b/16d/16c/16B/16!>(![I:staff -1] (1:1:9d'/16c'/16b/16g/16c/16[I:staff +1]B/16D/16C/16B,/16[I:staff -1] (1:1:9d/16c/16B/16G/16C/16[I:staff +1]B,/16D,/16C,/16B,,/16)!>)!!ppp![I:staff -1] x x2 | %66
 x4 | %67
[K:C][M:4/4][Q:1/4=80]"^Quasi cadenza" x3/2!8va(! x/!>(! !fermata!=f''2-!>)!!pp!!<(! (f''/4c''/4=a'/4f'/4) (f''/4c''/4a'/4f'/4) (f''/4c''/4a'/4f'/4) (f''/4c''/4a'/4f'/4)!<)! | %68
[M:5/4]!p!!<(! (f''/4c''/4=a'/4f'/4) (f''/4c''/4a'/4f'/4) (f''/4c''/4a'/4f'/4) (f''/4c''/4a'/4f'/4)!8va)!!<)!!mp!"_cresc. motlo" (f'/4c'/4=a/4f/4) (f'/4c'/4a/4f/4) (f/4c/4=A/4F/4) (f/4c/4A/4F/4)!f! (14:8:14(f/4c/4A/4F/4A/4c/4f/4f/4a/4c'/4f'/4!8va(!f'/4a'/4c''/4 f''/) z/ || %69
[K:F#][M:4/8][Q:1/4=50]"^Tempo (Rubato)"!pp! (27:16:27(1:1:9(d''/16c''/16b'/16g'/16c'/16!8va)![I:staff +1]b/16d/16c/16B/16!>(![I:staff -1] (1:1:9d'/16c'/16b/16g/16c/16[I:staff +1]B/16D/16C/16B,/16[I:staff -1] (1:1:9d/16c/16B/16G/16C/16[I:staff +1]B,/16D,/16C,/16B,,/16)!>)!!ppp!!<(![I:staff -1] x!<)!!pp! !tenuto![Gg]2 | %70
!8va(! (27:16:27(1:1:9(d''/16c''/16b'/16g'/16c'/16!8va)![I:staff +1]b/16d/16c/16B/16!>(![I:staff -1] (1:1:9d'/16c'/16b/16g/16c/16[I:staff +1]B/16D/16C/16B,/16[I:staff -1] (1:1:9d/16c/16B/16G/16C/16[I:staff +1]B,/16D,/16C,/16B,,/16)!>)!!ppp![I:staff -1] x x2 | %71
 x2 z2 ||[K:C][Q:1/4=72]"^Mouvt." z/4 (F/4_d/4_c/4_e/4=d/4).^F/ z/4 (G/4e/4_d/4=f/4=e/4).^G/ | %73
 z/4!<(! ([cd]/4[c'd']/4.[cd]/4) z/4!8va(! ([c'd']/4[c''d'']/4.[c'd']/4)!<)!!p! z/4!>(! ([c'd']/4[c''d'']/4.[c'd']/4)!8va)! z/4 ([cd]/4[c'd']/4.[cd]/4)!>)! | %74
!pp! z/4 (F/4_d/4_c/4_e/4=d/4).^F/ z/4 (G/4e/4_d/4=f/4=e/4).^G/ | %75
!p! z/4 (B/4g/4f/4 _a/4g/4_B/4_A/4)!<(! (_G/4_B,/4G/4A/4B/4_g/4a/4)!<)!!mp! z/4 | %76
!p! z/4 (=B/4=g/4f/4 _a/4g/4_B/4_A/4)!<(! (_G/4_B,/4G/4A/4B/4_g/4a/4!<)!!mp!B/4) | %77
!p! (_A/4_G/4B,/4G/4A/4G/4B,/4_G,/4) x2 | x4 | x4 || %80
[K:F][Q:1/4=60]"^Mouvt. élargi" z2 (c'/<"_écletant"[gg']/-)[gg'] | z2 (c'/4[aa']/4[gg']3/2) | %82
[I:staff +1] (6:4:6!>!C/4[I:staff -1]!>![cc']/4[I:staff +1]!>!A/4[I:staff -1]!>![aa']/4[I:staff +1]!>!G/4[I:staff -1]!>![gg']/4[I:staff +1] (6:4:6!>!B/4[I:staff -1]!>![bb']/4[I:staff +1]!>!_A/4[I:staff -1]!>![_a_a']/4[I:staff +1]!>!_D/4[I:staff -1]!>![_d_d']/4 [_c'_c'']2[K:bass] | %83
[K:treble] z2 (c'/<"_écletant"[gg']/-)[gg'] | z2 (c'/4[aa']/4[gg']3/2) | %85
[I:staff +1] (6:4:6C/4[I:staff -1][cc']/4[I:staff +1]A/4[I:staff -1][aa']/4[I:staff +1]G/4[I:staff -1][gg']/4[I:staff +1] (6:4:6B/4[I:staff -1][bb']/4[I:staff +1]_A/4[I:staff -1][_a_a']/4[I:staff +1]_D/4[I:staff -1][_d_d']/4[I:staff +1] (6:4:6=D/4[I:staff -1][=d=d']/4[I:staff +1]=B/4[I:staff -1][=b=b']/4[I:staff +1]=A/4[I:staff -1][=a=a']/4[I:staff +1] (6:4:6c/4[I:staff -1][c'c'']/4[I:staff +1]_B/4[I:staff -1][_b_b']/4[I:staff +1]_E/4[I:staff -1][_e_e']/4 | %86
[M:6/8]!ff!!8va(!!<(! ([c'_e'g'c''][be'g'b'])!8va)!!<)! [_egbe']!ff!!8va(!!<(! ([^c'=e'^g'^c''][=be'g'=b'])!8va)!!<)! [=e^gbe'] | %87
!ff!!8va(!!<(! ([d'f'a'd''][c'f'a'c''])!8va)!!<)! [fac'f']!ff!!8va(!!<(! ([^d'^f'^a'^d''][^c'f'a'^c''])!8va)!!<)! [^f^a^c'f'] || %88
[K:C][M:4/8]!ff! z2!8va(!!>(! (25:16:25(1:1:5(_a''/8_g''/8_e''/8_d''/8_b'/8!8va)!(1:1:5_a'/8_g'/8_e'/8_d'/8_b/8(1:1:5_a/8_g/8_e/8_d/8_B/8(1:1:5_A/8_G/8_E/8_D/8_B,/8[K:bass](1:1:5_A,/8_G,/8_E,/8_D,/8_B,,/8_A,,/8_G,,/8)!>)!!mf! !breath!!fermata!x/4 | %89
[K:treble][Q:1/4=55]"^Plus lent" x4 | x4[Q:1/4=50]"^Très retenu"[Q:1/8=90] | %91
[Q:1/4=40]"^Encore plus lent" z4 | z2 z z3/4"^de très loin" (!tenuto!g/4 | %93
 !tenuto!g2- g/g/!tenuto!e/>!tenuto!c/ | !tenuto!=d4-) | d z z!ppp!!<(! !tenuto!G | %96
 (!tenuto!c2!<)!!pp! !tenuto!d2 | !tenuto!e2)!8va(! .[_d'_d'']/ z/ z | z2 .[_d'_d'']/!8va)! z/ z | %99
 x4 |] %100
V:2
!pp![I:staff +1] (3(F/4G/4A/4[I:staff -1](3B/4_A/4_G/4[I:staff +1] (3F/4=G/4=A/4[I:staff -1](3B/4_A/4_G/4[I:staff +1] (3F/4=G/4=A/4[I:staff -1](3B/4_A/4_G/4[I:staff +1] (3F/4=G/4=A/4[I:staff -1](3B/4_A/4_G/4) | %1
[I:staff +1] (3(F/4G/4A/4[I:staff -1](3B/4_A/4_G/4[I:staff +1] (3F/4=G/4=A/4[I:staff -1](3B/4_A/4_G/4[I:staff +1] (3F/4=G/4=A/4[I:staff -1](3B/4_A/4_G/4[I:staff +1] (3F/4=G/4=A/4[I:staff -1](3B/4_A/4_G/4) | %2
[I:staff +1] (3(F/4G/4A/4[I:staff -1](3B/4_A/4_G/4[I:staff +1] (3F/4=G/4=A/4[I:staff -1](3B/4_A/4_G/4[I:staff +1] (3F/4=G/4=A/4[I:staff -1](3B/4_A/4_G/4[I:staff +1] (3F/4=G/4=A/4[I:staff -1](3B/4_A/4_G/4) | %3
[I:staff +1] (3(F/4G/4A/4[I:staff -1](3B/4_A/4_G/4[I:staff +1] (3F/4=G/4=A/4[I:staff -1](3B/4_A/4_G/4[I:staff +1] (3F/4=G/4=A/4[I:staff -1](3B/4_A/4_G/4[I:staff +1] (3F/4=G/4=A/4[I:staff -1](3B/4_A/4_G/4) | %4
[I:staff +1] (3(F/4G/4A/4[I:staff -1](3B/4_A/4_G/4[I:staff +1] (3F/4=G/4=A/4[I:staff -1](3B/4_A/4_G/4[I:staff +1] (3F/4=G/4=A/4[I:staff -1](3B/4_A/4_G/4[I:staff +1] (3F/4=G/4=A/4[I:staff -1](3B/4_A/4_G/4) | %5
[I:staff +1] (3(F/4G/4A/4[I:staff -1](3B/4_A/4_G/4[I:staff +1] (3F/4=G/4=A/4[I:staff -1](3B/4_A/4_G/4[I:staff +1] (3F/4=G/4=A/4[I:staff -1](3B/4_A/4_G/4[I:staff +1] (3F/4=G/4=A/4[I:staff -1](3B/4_A/4_G/4) | %6
[I:staff +1] (3(F/4G/4A/4[I:staff -1](3B/4_A/4_G/4[I:staff +1] (3F/4=G/4=A/4[I:staff -1](3B/4_A/4_G/4 (3:2:1z3/4 (3B/4A/4G/4[I:staff +1] (3F/4=G/4=A/4[I:staff -1](3B/4_A/4_G/4) | %7
[I:staff +1] (3(F/4G/4A/4[I:staff -1](3B/4_A/4_G/4[I:staff +1] (3F/4=G/4=A/4[I:staff -1](3B/4_A/4_G/4[I:staff +1] (3F/4=G/4=A/4[I:staff -1](3B/4_A/4_G/4[I:staff +1] (3F/4=G/4=A/4[I:staff -1](3B/4_A/4_G/4) | %8
[I:staff +1] (3(F/4G/4A/4[I:staff -1](3B/4_A/4_G/4[I:staff +1] (3F/4=G/4=A/4[I:staff -1](3B/4_A/4_G/4 (3:2:1z3/4 (3B/4A/4G/4[I:staff +1] (3F/4=G/4=A/4[I:staff -1](3B/4_A/4_G/4) | %9
[I:staff +1] (3(F/4G/4A/4[I:staff -1](3B/4_A/4_G/4[I:staff +1] (3F/4=G/4=A/4[I:staff -1](3B/4_A/4_G/4[I:staff +1] (3F/4=G/4=A/4[I:staff -1](3B/4_A/4_G/4[I:staff +1] (3F/4=G/4=A/4[I:staff -1](3B/4_A/4_G/4) | %10
!pp![I:staff +1] (3(F/4G/4A/4[I:staff -1](3B/4_A/4_G/4[I:staff +1] (3F/4=G/4=A/4[I:staff -1](3B/4_A/4_G/4[I:staff +1] (3F/4=G/4=A/4[I:staff -1](3B/4_A/4_G/4[I:staff +1] (3F/4=G/4=A/4[I:staff -1](3B/4_A/4_G/4) | %11
[I:staff +1] (3(F/4G/4A/4[I:staff -1](3B/4_A/4_G/4[I:staff +1] (3F/4=G/4=A/4[I:staff -1](3B/4_A/4_G/4[I:staff +1] (3F/4=G/4=A/4[I:staff -1](3B/4_A/4_G/4[I:staff +1] (3F/4=G/4=A/4[I:staff -1](3B/4_A/4_G/4) | %12
[I:staff +1] (3(F/4G/4A/4[I:staff -1](3B/4_A/4_G/4[I:staff +1] (3F/4=G/4=A/4[I:staff -1](3B/4_A/4_G/4[I:staff +1] (3F/4=G/4=A/4[I:staff -1](3B/4_A/4_G/4[I:staff +1] (3F/4=G/4=A/4[I:staff -1](3B/4_A/4_G/4) | %13
[I:staff +1] (3(F/4G/4A/4[I:staff -1](3B/4_A/4_G/4[I:staff +1] (3F/4=G/4=A/4[I:staff -1](3B/4_A/4_G/4[I:staff +1] (3F/4=G/4=A/4[I:staff -1](3B/4_A/4_G/4[I:staff +1] (3F/4=G/4=A/4[I:staff -1](3B/4_A/4_G/4) | %14
!mp!"^cresc. molto"[I:staff +1] (3(F/4G/4A/4[I:staff -1](3B/4_A/4_G/4[I:staff +1] (3F/4=G/4=A/4[I:staff -1](3B/4_A/4_G/4) x2 | %15
 x4 |!f! x4 | z/!p! .[_C_D]/ z z2 | z/!p! .[_C_D]/ z z2 | %19
!pp![I:staff +1] (6:4:6.=B,/4[I:staff -1].[=C_D]/4[I:staff +1].B,/4[I:staff -1].[CD]/4[I:staff +1].B,/4[I:staff -1].[CD]/4[I:staff +1] (6:4:6.C/4[I:staff -1].[D_E]/4[I:staff +1].C/4[I:staff -1].[DE]/4[I:staff +1].C/4[I:staff -1].[DE]/4[I:staff +1] (6:4:6.B,/4[I:staff -1].[CD]/4[I:staff +1].B,/4[I:staff -1].[CD]/4[I:staff +1].B,/4[I:staff -1].[CD]/4[I:staff +1] (6:4:6.C/4[I:staff -1].[DE]/4[I:staff +1].C/4[I:staff -1].[DE]/4[I:staff +1].C/4[I:staff -1].[DE]/4 | %20
[I:staff +1] (6:4:6.=B,/4[I:staff -1].[C_D]/4[I:staff +1].B,/4[I:staff -1].[CD]/4[I:staff +1].C/4[I:staff -1].[D_E]/4[I:staff +1] (6:4:6.B,/4[I:staff -1].[CD]/4[I:staff +1].B,/4[I:staff -1].[CD]/4[I:staff +1].C/4[I:staff -1].[DE]/4[I:staff +1] (6:4:6.B,/4[I:staff -1].[CD]/4[I:staff +1].B,/4[I:staff -1].[CD]/4[I:staff +1].C/4[I:staff -1].[DE]/4[I:staff +1] (6:4:6.B,/4[I:staff -1].[CD]/4[I:staff +1].B,/4[I:staff -1].[CD]/4[I:staff +1].C/4[I:staff -1].[DE]/4 | %21
[I:staff +1] (6:4:6.=B/4[I:staff -1].[c_d]/4[I:staff +1].B/4[I:staff -1].[cd]/4[I:staff +1].B/4[I:staff -1].[cd]/4[I:staff +1] (6:4:6.c/4[I:staff -1].[d_e]/4[I:staff +1].c/4[I:staff -1].[de]/4[I:staff +1].c/4[I:staff -1].[de]/4[I:staff +1] (6:4:6.B/4[I:staff -1].[cd]/4[I:staff +1].B/4[I:staff -1].[cd]/4[I:staff +1].B/4[I:staff -1].[cd]/4[I:staff +1] (6:4:6.c/4[I:staff -1].[de]/4[I:staff +1].c/4[I:staff -1].[de]/4[I:staff +1].c/4[I:staff -1].[de]/4 | %22
"^crescendo"[I:staff +1] (6:4:6.=B/4[I:staff -1].[c_d]/4[I:staff +1].B/4[I:staff -1].[cd]/4[I:staff +1].c/4[I:staff -1].[d_e]/4[I:staff +1] (6:4:6.B/4[I:staff -1].[cd]/4[I:staff +1].B/4[I:staff -1].[cd]/4[I:staff +1].c/4[I:staff -1].[de]/4[I:staff +1] (6:4:6.B/4[I:staff -1].[cd]/4[I:staff +1].B/4[I:staff -1].[cd]/4[I:staff +1].c/4[I:staff -1].[de]/4[I:staff +1] (6:4:6.B/4[I:staff -1].[cd]/4[I:staff +1].B/4[I:staff -1].[cd]/4[I:staff +1].c/4[I:staff -1].[de]/4 | %23
[I:staff +1] (6:4:6.=b/4[I:staff -1].[c'_d']/4[I:staff +1].b/4[I:staff -1].[c'd']/4[I:staff +1].c'/4[I:staff -1].[d'_e']/4[I:staff +1] (6:4:6.b/4[I:staff -1].[c'd']/4[I:staff +1].b/4[I:staff -1].[c'd']/4[I:staff +1].c'/4[I:staff -1].[d'e']/4 x2 | %24
!f! z x x2 | x4 | %26
!8va(![I:staff -1] (15:8:14(1:1:5(e''/4d''/4c''/4b'/4g'/4!8va)![I:staff +1](1:1:5e'/4d'/4c'/4b/4g/4[I:staff -1]e/4d/4c/4B/4)[I:staff +2] (15:8:14(1:1:5(G/4[I:staff -2]B/4c/4d/4e/4[I:staff +1](1:1:5g/4b/4c'/4d'/4e'/4!8va(![I:staff -1]g'/4b'/4c''/4d''/4) | %27
 (15:8:14(1:1:5(e''/4d''/4c''/4b'/4g'/4!8va)![I:staff +1](1:1:5e'/4d'/4c'/4b/4g/4[I:staff -1]e/4d/4c/4B/4) (15:8:14(1:1:5(G/4B/4c/4d/4e/4[I:staff +1](1:1:5g/4b/4c'/4d'/4e'/4!8va(![I:staff -1]g'/4b'/4c''/4d''/4) | %28
 (15:8:14(1:1:5(e''/4d''/4c''/4b'/4g'/4!8va)![I:staff +1](1:1:5e'/4d'/4c'/4b/4g/4[I:staff -1]e/4d/4c/4B/4)[I:staff +2] (15:8:15(1:1:5(C/4[I:staff -2]B/4c/4d/4e/4[I:staff +1](1:1:5g/4b/4c'/4d'/4e'/4!8va(![I:staff -1](1:1:5g'/4b'/4c''/4d''/4)[I:staff +1] x/4!8va)! | %29
[M:2/8] z2 | %30
[M:4/8]!f!!8va(![I:staff -1] (15:8:14(1:1:5(e''/4d''/4c''/4b'/4g'/4!8va)![I:staff +1](1:1:5e'/4d'/4c'/4b/4g/4[I:staff -1]e/4d/4c/4B/4)[I:staff +2] (15:8:14(1:1:5(G/4[I:staff -2]B/4c/4d/4e/4[I:staff +1](1:1:5g/4b/4c'/4d'/4e'/4!8va(![I:staff -1]g'/4b'/4c''/4d''/4) | %31
[M:3/8]!>(! (10:8:10(e''/8d''/8c''/8b'/8g'/8!8va)![I:staff +1]e'/8d'/8c'/8b/8g/8)!>)!!mf!!>(![I:staff -1] (10:8:10(e'/8d'/8c'/8b/8g/8[I:staff +1]e/8d/8c/8B/8G/8)!>)!!mp!!>(![I:staff -1] (10:8:10(e/8d/8c/8B/8G/8[I:staff +1]E/8D/8C/8[I:staff +1]B,/8G,/8)!>)! | %32
[M:4/8]!p![I:staff -2] (10:8:10(e/8d/8c/8B/8G/8[I:staff +1]E/8D/8C/8[I:staff +1]B,/8G,/8-) (5:4:5(G,/8B,/8[I:staff -1]^C/8D/8E/8!<(![I:staff -1]G/8B/8^c/8!<)!!mp!d/8)!p! (10:8:10(e/8d/8=c/8B/8G/8[I:staff +1]E/8D/8=C/8[I:staff +1]B,/8G,/8-) (5:4:5(G,/8B,/8[I:staff -1]^C/8D/8E/8!<(![I:staff -1]G/8B/8^c/8!<)!!mp!d/8) | %33
!p! (10:8:10(e/8d/8c/8B/8G/8[I:staff +1]E/8D/8C/8[I:staff +1]B,/8G,/8-) (5:4:5(G,/8B,/8[I:staff -1]^C/8D/8E/8!<(![I:staff -1]G/8B/8^c/8d/8)!<)!!p! (10:8:10(e/8d/8=c/8B/8G/8[I:staff +1]E/8D/8=C/8[I:staff +1]B,/8G,/8-) (5:4:5(G,/8B,/8[I:staff -1]^C/8D/8E/8!<(![I:staff -1]G/8B/8^c/8d/8)!<)! | %34
!f![I:staff +2] (15:8:15(G,,,/4G,,/4_D,/4_E,/4F,/4_C/4[I:staff -1]_D/4_E/4F/4E/4D/4C/4[I:staff +1]F,/4E,/4D,/4) (15:8:15(G,,/4D,/4E,/4F,/4C/4[I:staff -1]D/4E/4F/4E/4D/4C/4[I:staff +1]F,/4E,/4D,/4G,,/4) | %35
!f! (15:8:15(G,,,/4G,,/4_D,/4_E,/4F,/4_C/4[I:staff -1]_D/4_E/4F/4E/4D/4C/4[I:staff +1]F,/4E,/4D,/4) (15:8:15(G,,/4D,/4E,/4F,/4C/4[I:staff -1]D/4E/4F/4E/4D/4C/4[I:staff +1]F,/4E,/4D,/4G,,/4) | %36
 (G,,,/8G,,/8_D,/8_E,/8F,/8_C/8[I:staff -1]_D/8_E/8F/8E/8D/8C/8[I:staff +1]F,/8[I:staff -1]C/8D/8E/8) (15:8:15(_c/4-c/4_d/4_e/4f/4e/4d/4c/4F/4E/4D/4[I:staff +1]C/4F,/4E,/4D,/4) | %37
[M:6/8] (15:8:15(G,,,/4G,,/4_D,/4_E,/4F,/4_C/4[I:staff -1]_D/4_E/4F/4E/4D/4C/4[I:staff +1]F,/4E,/4D,/4) (G,,/8D,/8E,/8[I:staff -1]F,/8C/8D/8E/8F/8)[I:staff +1] (G,/8D/8E/8[I:staff -1]F/8_c/8_d/8_e/8f/8)!<(! (G/8d/8e/8[I:staff -1]f/8_c'/8_d'/8_e'/8f'/8)[I:staff +1] (7:4:7(g/4d'/4e'/4!8va(![I:staff -1]f'/4_c''/4_d''/4_e''/4)!<)! | %38
[M:4/8]!ff! (5:4:5(f''/8_e''/8_d''/8_c''/8f'/8[I:staff +1]b'/8_a'/8_g'/8_e'/8)!8va)![I:staff -1] (5:4:5(f'/8_e'/8_d'/8_c'/8f/8[I:staff +1]b/8_a/8_g/8_e/8)[I:staff -1] (5:4:5(f/8_e/8_d/8_c/8F/8[I:staff +1]B/8_A/8_G/8_E/8)[I:staff -1] (5:4:5(F/8_E/8_D/8_C/8F,/8[I:staff +1][K:bass] B,/8_A,/8_G,/8_E,/8) | %39
"_molto dim."[I:staff -1] (5:4:5(F/8_E/8_D/8_C/8F,/8[I:staff +1] B,/8_A,/8_G,/8_E,/8-) (7:4:7(E,/4G,/4A,/4B,/4[I:staff -1]C/4D/4E/4) (5:4:5(F/8_E/8D/8C/8F,/8[I:staff +1] B,/8A,/8G,/8E,/8-) (7:4:7(E,/4G,/4A,/4B,/4[I:staff -1]C/4D/4E/4) || %40
[K:Db]!p!!>(![I:staff +1] (7:4:7(F/4E/4D/4C/4B,/4G,/4E,/4)!>)![I:staff +1] (7:4:7(A,,/4[I:staff -1]E,/4G,/4A,/4C/4D/4E/4)!p!!>(! (7:4:7(F/4E/4D/4C/4B,/4G,/4E,/4)!>)![I:staff +1] (7:4:7(A,,/4[I:staff -1]E,/4G,/4A,/4C/4D/4E/4) | %41
!p!!>(! (7:4:7(F/4E/4D/4C/4B,/4G,/4E,/4)!>)![I:staff +1] (7:4:7(A,,/4[I:staff -1]E,/4G,/4A,/4C/4D/4E/4)!p!!>(! (7:4:7(F/4E/4D/4C/4B,/4G,/4E,/4)!>)![I:staff +1] (7:4:7(A,,/4[I:staff -1]E,/4G,/4A,/4C/4D/4E/4) | %42
!p!!>(! (7:4:7(F/4E/4D/4C/4B,/4G,/4E,/4)!>)![I:staff +1] (7:4:7(A,,/4[I:staff -1]E,/4G,/4A,/4C/4D/4E/4)!p!!>(! (7:4:7(F/4E/4D/4C/4B,/4G,/4E,/4)!>)![I:staff +1] (7:4:7(A,,/4[I:staff -1]E,/4G,/4A,/4C/4D/4E/4) | %43
[M:2/8][I:staff +1] (G,,/8D,/8_F,/8G,/8A,/8B,/8[I:staff -1][K:treble]D/8_F/8) (6:4:6(=F/4=D/4[I:staff +1]A,/4=F,/4=D,/4A,,/4) | %44
[M:4/8] (12:8:12(=D,,/4A,,/4=D,/4G,/4A,/4C/4[I:staff -1]=D/4G/4A/4c/4=d/4) z/4 x2 | %45
[I:staff +1] (12:8:12(=D,,/4A,,/4=D,/4G,/4A,/4C/4[I:staff -1]=D/4G/4A/4c/4=d/4) z/4 x2 || %46
[K:C]!p! (3([B,^D^FB]/.[A,DFA]/)[I:staff +1]!tenuto![^C^D]/[I:staff -1] (3([^C^E^G^c]/.[B,^EGB]/)[I:staff +1]!tenuto![CD]/!<(![I:staff -1] (3([B,^D^FB]/.[A,DFA]/)[I:staff +1]!tenuto![C^D]/[I:staff -1] (3([B^d^fb]/.[Adfa]/)[I:staff +1]!tenuto![c^d]/!<)! | %47
!mf![I:staff -1] x!>(! x!>)!!p! (3([B,^D^FB]/.[A,DFA]/)[I:staff +1]!tenuto![^C^D]/[I:staff -1] (3([A,^CEA]/.[G,CEG]/)[I:staff +1]!tenuto![C^D]/ | %48
[I:staff -1] x4 | x4 | x4 | %51
 (3:2:2.[AB]3/4.[ab]3/4 (3:2:2.[_A_B]3/4.[_a_b]3/4 (3:2:2.[=A=B]3/4.[=a=b]3/4 (3:2:2.[_A_B]3/4.[_a_b]3/4- | %52
!<(! (3:2:2[ab]!8va(![I:staff -1][_a'_b']/!<)!!8va)!"^strident"[I:staff +1] x x2 | %53
!<(! (3z/ [_a_b]/!8va(![I:staff -1][_a'_b']/!<)!!8va)!"^strident"[I:staff +1] x x2 | %54
 (.[_a_b].[^F^G]) (.[c'd'].[FG]) | (.[_a_b].[^F^G])(.[ab].[FG]) || %56
[K:A]!pp![I:staff -1] (3:2:9(c'/8g/8f/8d/8[I:staff +1]c/8G/8F/8D/8) z/[I:staff -1] (3:2:9(c/8G/8F/8D/8[I:staff +1][K:bass]C/8G,/8F,/8D,/8) z/[I:staff -1] (3:2:9(^B/8G/8F/8D/8[I:staff +1]^B,/8G,/8F,/8D,/8) z/[I:staff -1] (3:2:9(^b/8g/8f/8d/8[I:staff +1][K:treble]B/8G/8F/8D/8) z/ | %57
[I:staff -1] (3:2:9(c'/8g/8f/8d/8[I:staff +1]c/8G/8F/8D/8) z/[I:staff -1] (3:2:9(c/8G/8F/8D/8[I:staff +1][K:bass]C/8G,/8F,/8D,/8) z/[I:staff -1] (3:2:8(d/8G/8F/8D/8[I:staff +1](3G,/4F,/4D,/4) z/[I:staff -1] (3:2:8(d'/8g/8f/8d/8[I:staff +1][K:treble](3G/4F/4D/4) z/ | %58
[I:staff -1] (3:2:9(f'/8c'/8g/8f/8[I:staff +1]d/8c/8G/8F/8) z/[I:staff -1] (3:2:9(f/8c/8G/8F/8[I:staff +1][K:bass]D/8C/8G,/8F,/8) z/[I:staff -1] (3:2:9(e/8c/8G/8F/8[I:staff +1]D/8=C/8G,/8F,/8) z/[I:staff -1] (3:2:9(e'/8c'/8g/8f/8[I:staff +1][K:treble]d/8=c/8G/8F/8) z/ | %59
[I:staff -1] (3:2:9(g'/8^d'/8^a/8g/8[I:staff +1]e/8^d/8^A/8G/8) z/[I:staff -1] (3:2:9(g/8^d/8^A/8G/8[I:staff +1][K:bass]E/8^D/8^A,/8G,/8) z/[I:staff -1] (3:2:9(f/8=d/8A/8F/8[I:staff +1]E/8=D/8A,/8G,/8) z/[I:staff -1] (3:2:9(f'/8=d'/8a/8f/8[I:staff +1][K:treble]e/8d/8A/8G/8) z/ || %60
[K:C] z[K:bass]"_glissando" (15:8:15(C,/8D,/8E,/8F,/8G,/8A,/8B,/8[I:staff -1]C/8D/8E/8F/8G/8A/8B/8c/8)!<(![I:staff +1] ((!tenuto![^F,^A,^C^F]/>[I:staff -1].[E^GBe]/!<)!!p!!tenuto![_B,D=F_B])) | %61
[I:staff +1] z[K:bass]"_simile" (15:8:15(C,/8D,/8E,/8F,/8G,/8A,/8B,/8[I:staff -1]C/8D/8E/8F/8G/8A/8B/8c/8)!p!!<(![I:staff +1] ((!tenuto![^F,^A,^C^F]/>[I:staff -1].[E^GBe]/)[I:staff +1] (.[_B,D=F_B]/)!<)!!mp![G,=B,D]/) | %62
 z (11:8:11(_E,/8_G,/8_A,/8_B,/8_D/8[I:staff -1]_E/8_G/8_A/8_B/8_d/8_e/8)[I:staff +1][K:treble]!<(! ((!tenuto![=A,^C=E=A]/>[I:staff -1].[=G=B=d=g]/)!<)!!p![I:staff +1]!tenuto![C^E^G^c]) | %63
[K:bass] z (11:8:11(_E,/8_G,/8_A,/8_B,/8_D/8[I:staff -1]_E/8_G/8_A/8_B/8_d/8_e/8)[I:staff +1][K:treble]!p!!<(! x3/2!<)!!mp! x/ || %64
[K:F#] (3z x/4[K:bass] x/4 z3/4 C/4 z2 | %65
[K:treble] (3z x/4[K:bass] x/4 z!<(! (C/4[I:staff -1][Aa]/4!<)!!pp![I:staff +1]!tenuto!G3/2) | %66
[K:treble] (6:4:6z/4!f!!<(! (!>!C/4[I:staff -1]!>![Aa]/4[I:staff +1]!>!G/4[I:staff -1]!>![Bb]/4[I:staff +1]!>!=A/4)!<)!!ff! .!fermata!=D3- | %67
[K:C][M:4/4] (12:8:12(D/4A/4c/4_e/4^f/4a/4c'/4_e'/4^f'/4!8va(![I:staff -1]=f'/4a'/4c''/4)!8va)![I:staff +1] x2!8va(! (3(_g'/_e'/c'/) (3(g'/e'/c'/) (3(g'/e'/c'/) (3(g'/e'/c'/) | %68
[M:5/4] (_a'/4_g'/4_e'/4c'/4) (a'/4g'/4e'/4c'/4) (a'/4g'/4e'/4c'/4) (a'/4g'/4e'/4c'/4)!8va)! (_a/4_g/4_e/4c/4) (a/4g/4e/4c/4) (_A/4_G/4_E/4C/4) (A/4G/4E/4C/4) (10:8:10(_A/4_G/4_E/4G/4A/4_e/4_g/4_a/4e'/4g'/4 a'/) z/ || %69
[K:F#][M:4/8] (3z x/4[K:bass] x/4 z3/4 C/4 z2 | %70
[K:treble] (3z x/4[K:bass] x/4 z!<(! (C/4[I:staff -1][Aa]/4!<)!!pp![I:staff +1]!tenuto!G3/2) | %71
[K:treble] (6:4:6z/4!f!!<(! (!>!C/4[I:staff -1]!>![Aa]/4[I:staff +1]!>!G/4[I:staff -1]!>![Bb]/4[I:staff +1]!>!=A/4!<)!!f!!>!=D)!f! (6:4:6z/4!<(! (!>!^D/4[I:staff -1]!>![=c=c']/4[I:staff +1]!>!_B/4[I:staff -1]!>![^c^c']/4[I:staff +1]!>!=B/4!<)!!ff!!>!=E) || %72
[K:C]!pp! (!//-!^D/E/) (!//-!=D/E/) (!//-!^D/E/) (!//-!=D/E/) | %73
 (!//-!^D/E/) (!//-!=D/E/) (!//-!^D/E/) (!//-!=D/E/) | %74
 (!//-!^D/E/) (!//-!=D/E/) (!//-!^D/E/) (!//-!=D/E/) | %75
 ((!//-!_D/_E/)[I:staff +1] (!//-!C/=D/))[I:staff -1]((!//-!c/=d/)[I:staff +1](!//-!C/D/)) | %76
[I:staff -1] ((!//-!_D/_E/)[I:staff +1] (!//-!C/=D/))[I:staff -1]((!//-!c/=d/)[I:staff +1](!//-!C/D/)) | %77
[I:staff -1] (C/4D/4C/4D/4C/4D/4C/4D/4)[K:bass]"^cresc." (_A,/4_G,/4B,,/4G,/4A,/4G,/4B,,/4_G,,/4) | %78
!mp! (_A,,/4_G,,/4B,,,/4G,,/4) (A,,/4G,,/4B,,,/4G,,/4) (A,,/4G,,/4B,,,/4G,,/4) (A,,/4G,,/4B,,,/4G,,/4) | %79
"_molto cresc." (_A,,/4_G,,/4B,,,/4G,,/4) (A,,/4G,,/4B,,,/4G,,/4) (A,,/4G,,/4B,,,/4G,,/4) (A,,/4G,,/4B,,,/4G,,/4) || %80
[K:F]!f!!8vb(!!<(![I:staff +1] (21:8:21(1:1:7(B,,,,/4C,,,/4B,,,/4!8vb)![I:staff -1][C,,D,,]/4B,,/4C,/4D,/4)[I:staff +1] (1:1:7(B,,,/4C,,/4B,,/4[I:staff -1][C,D,]/4B,/4C/4D/4)[I:staff +1] (1:1:7(B,,/4C,/4B,/4[I:staff -1][K:treble][CD]/4B/4c/4d/4)!<)!!ff! ([Cc]/<G/-)G | %81
[K:bass]!f!!8vb(!!<(![I:staff +1] (21:8:21(1:1:7(B,,,,/4C,,,/4B,,,/4!8vb)![I:staff -1][C,,D,,]/4B,,/4C,/4D,/4)[I:staff +1] (1:1:7(B,,,/4C,,/4B,,/4[I:staff -1][C,D,]/4B,/4C/4D/4)[I:staff +1] (1:1:7(B,,/4C,/4B,/4[I:staff -1][K:treble][CD]/4B/4c/4d/4)!<)!!ff! ([Cc]/4A/4G3/2) | %82
!f!!<(! x2!<)! _c2[K:bass] | %83
!f!!8vb(!!<(![I:staff +1] (21:8:21(1:1:7(B,,,,/4C,,,/4B,,,/4!8vb)![I:staff -1][C,,D,,]/4B,,/4C,/4D,/4)[I:staff +1] (1:1:7(B,,,/4C,,/4B,,/4[I:staff -1][C,D,]/4B,/4C/4D/4)[I:staff +1] (1:1:7(B,,/4C,/4B,/4[I:staff -1][K:treble][CD]/4B/4c/4d/4)!<)!!ff! ([Cc]/<G/-)G | %84
[K:bass]!f!!8vb(!!<(![I:staff +1] (21:8:21(1:1:7(B,,,,/4C,,,/4B,,,/4!8vb)![I:staff -1][C,,D,,]/4B,,/4C,/4D,/4)[I:staff +1] (1:1:7(B,,,/4C,,/4B,,/4[I:staff -1][C,D,]/4B,/4C/4D/4)[I:staff +1] (1:1:7(B,,/4C,/4B,/4[I:staff -1][K:treble][CD]/4B/4c/4d/4)!<)!!ff! ([Cc]/4A/4G3/2) | %85
!f!"_e cresc." x2 x2 |[M:6/8] z z3/4 [G,B,_D=EG]/4- [G,B,DEG] z z3/4 [^G,=B,=DF^G]/4- [G,B,DFG] | %87
 z z3/4 [A,C_E_GA]/4- [A,CEGA] z z3/4 [^A,^C=E=G^A]/4- [A,CEGA] || %88
[K:C][M:4/8] z2!8va(! (35:16:35(1:1:7(=a''/8=g''/8f''/8=e''/8=d''/8c''/8=b'/8!8va)!(1:1:7=a'/8=g'/8f'/8=e'/8=d'/8c'/8=b/8(1:1:7=a/8=g/8f/8=e/8=d/8c/8=B/8(1:1:7=A/8=G/8F/8=E/8=D/8C/8=B,/8[K:bass](1:1:7=A,/8=G,/8F,/8=E,/8=D,/8C,/8=B,,/8=A,,/8=G,,/8) !breath!!fermata!x/4 | %89
!mf![I:staff +1] (F,/8G,/8A,/8[I:staff -1]_B,/8_A,/8_G,/8D,/8) z/8 z!p![I:staff +1] (F,/8=G,/8=A,/8[I:staff -1]B,/8_A,/8_G,/8D,/8) z/8 z | %90
!p!!>(![I:staff +1] (F,,/8G,,/8A,,/8[I:staff -1]_B,,/8_A,,/8_G,,/8D,,/8)!>)!!pp! z/8 z z z/4!pp!!>(! .B,,,/4._B,,,/4.A,,,/4!>)! | %91
 z4 | z4 | z4 |[K:treble] (C/<G/-)G (C/4A/4G3/2-) | G z z2 | z2 z!pp! z/4!<(! .C/4.A/4.G/4!<)! | %97
!p!!>(! (!tenuto!_B/8_A/8._D/4)!>)!!ppp! x/!ppp! x x2 | x4 | x4 |] %100
V:3
 x4 | x4 | x4 | x4 | x4 | x4 | x2[K:bass]"_marqué"!ped! .!^!_A,,,!ped-up![K:treble] z | x4 | %8
 x2[K:bass]"_marqué"!ped! .!^!_A,,,!ped-up![K:treble] z | x4 | x4 | x4 | x4 | x4 | x4 | x4 | x4 | %17
[K:bass]!8vb(! !-)!B,,,,!8vb)! z z2 | z4 | x4 | x4 |[K:treble] x4 | x4 | x4 |!ped! x4!ped-up! | %25
!ped! x4 | z z3/4!f!!<(! (C/4!ped-up!!<)!!f!"^très en dehors"!ped! !>!G2-) | G4 | %28
 z2!f!!<(! C/4A/4!ped-up!!<)!!f!!ped!!>!G3/2!ped-up! | %29
[M:2/8] z/4!ff!!<(! .^C/4.^A/4.^G/4 .=B/4.=A/4!<)!!fff!.D/4 z/4 | %30
[M:4/8]!ped! z z3/4!f!!<(! (C/4!<)!!f! !>!G2) |[M:3/8][K:bass] x3 | %32
[M:4/8] z!ped-up!!ped! C,!ped-up!!ped! z!ped-up!!ped! C,!ped-up! | %33
!ped! z!ped-up!!ped! C,!ped-up!!ped! z!ped-up!!ped! C,!ped-up! |!ped! G,,,4!ped-up! | %35
!ped! G,,,4!ped-up! |!ped! G,,,4!ped-up! |[M:6/8]!ped! G,,,4 x2!ped-up! |[M:4/8]!ped! z4 | %39
 z!ped-up!!ped! ._A,,!ped-up!!ped! z!ped-up!!ped! .A,,!ped-up! || %40
[K:Db]!ped! z!ped-up!!ped! .A,,/ z/!ped-up!!ped! z!ped-up!!ped! .A,,/ z/!ped-up! | %41
!ped! z!ped-up!!ped! .A,,/ z/!ped-up!!ped! z!ped-up!!ped! .A,,/ z/!ped-up! | %42
!ped! z!ped-up!!ped! .A,,/ z/!ped-up!!ped! z!ped-up!!ped! .A,,/ z/!ped-up! |[M:2/8] G,,2 | %44
[M:4/8]!ped! =D,,2!ped-up! x2 |!ped! =D,,2!ped-up! x2 ||[K:C][K:treble] x4 | x4 | z4 | z4 | z4 | %51
[K:bass] z4 |!ped! z (3z/!ped-up! z/!pp!!8vb(!!ped! D,,,/-"^(laissez vibrer)" D,,,2!8vb)! | %53
 z (3z/!ped-up! z/!pp!!8vb(!!ped! D,,,/-"^(laissez vibrer)" D,,,2!8vb)! | z4 | z4!ped-up! || %56
[K:A]!ped! !tenuto!G,,,4!ped-up! |!ped! !tenuto!G,,,4!ped-up! | %58
!ped! (.[B,,,B,,]2!ped-up!!ped! .[D,,D,]2)!ped-up! | %59
!ped! (.[C,,C,]2!ped-up!!ped! .[E,,E,]2)!ped-up! || %60
[K:C]!pp!!8vb(!!ped! !tenuto![C,,,G,,,C,,]2!8vb)!!ped-up! x x | %61
!pp!!8vb(!!ped! !tenuto![C,,,G,,,C,,]2!8vb)!!ped-up! z2 | %62
!pp!!8vb(!!ped! !tenuto![_E,,,_B,,,_E,,]2!8vb)!!ped-up! x2 | %63
!pp!!8vb(!!ped! !tenuto![_E,,,_B,,,_E,,]2!8vb)!!ped-up! z2 || %64
[K:F#]!ped! (.E,,,3!ped-up!!ped! .B,,,)!ped-up! |!ped! (.E,,,3!ped-up!!ped! .B,,,)!ped-up! | %66
 .E,,,/ z/!ped! z x2 |[K:C][M:4/4] x8 | %68
[M:5/4] x4!ped-up!!ped! x2!ped-up!!ped! x2!ped-up!!ped! x2 x!ped-up! || %69
[K:F#][M:4/8]!ped! (.E,,,3!ped-up!!ped! .B,,,)!ped-up! |!ped! (.E,,,3!ped-up!!ped! .B,,,)!ped-up! | %71
 .E,,, z z2 ||[K:C] .^D/ x/ .=D/ x/ .^D/ x/ .=D/ x/ | .^D/ x/ .=D/ x/ .^D/ x/ .=D/ x/ | %74
 .^D/ x/ .=D/ x/ .^D/ x/ .=D/ x/ | x4 | x4 | z2 (C,/4D,/4C,/4D,/4C,/4D,/4C,/4D,/4) | %78
 (C,,/4D,,/4C,,/4D,,/4) (C,,/4D,,/4C,,/4D,,/4) (C,,/4D,,/4C,,/4D,,/4) (C,,/4D,,/4C,,/4D,,/4) | %79
 (C,,/4D,,/4C,,/4D,,/4) (C,,/4D,,/4C,,/4D,,/4) (C,,/4D,,/4C,,/4D,,/4) (C,,/4D,,/4C,,/4D,,/4) || %80
[K:F]!ped! x3!ped-up!!8vb(!!ped! E,,,!8vb)!!ped-up! |!ped! x3!ped-up!!ped! x!ped-up! | %82
 x2!ped! x2!ped-up! |!ped! x3!ped-up!!8vb(!!ped! E,,,!8vb)!!ped-up! | %84
!ped! x3!ped-up!!ped! x!ped-up! | z4 |[M:6/8]!ped! [_E,,,_E,,]3!ped-up!!ped! [=E,,,=E,,]3!ped-up! | %87
!ped! [F,,,F,,]3!ped-up!!ped! [^F,,,^F,,]3!ped-up! || %88
[K:C][M:4/8]!8vb(!!ped! A,,,,2!8vb)! x2 x/4 !breath!!fermata!x/4!ped-up! | x4 | x4 | %91
!pp!!ped!!8vb(! x4!ped-up! |!ped! x4!ped-up! |!ped! x4!ped-up! |!ped! x4!ped-up! | %95
!ped! x4!ped-up! |!ped! x2!ped-up!!ped! x2!ped-up! |!ppp!!ped! x2!ped-up!!ped! x2 | %98
 x2!ped-up!!ped! x2!ped-up! | x4!8vb)! |] %100
V:4
 x4 | x4 | x4 | x4 |!8va(! x/!8va)! x7/2 | x4 | x4 |!8va(! x!8va)! x3 | x4 |!8va(! x!8va)! x3 | %10
 x3!8va(! x | x7/2!8va)! x/ | x3!8va(! x | x7/2!8va)! x/ | x4 |!8va(! x4 | %16
 x2/3!8va)! x4/3[K:bass] x4/3!8vb(! x2/3 | x!8vb)! x3 |[K:treble] x4 | x4 | x4 | x4 | x4 | %23
 x2!8va(! x2 | x2/3!8va)! x8/3!8va(! x2/3 | x2/3!8va)! x8/3!8va(! x2/3 | %26
 x2/3!8va)! x8/3!8va(! x2/3 | x2/3!8va)! x8/3!8va(! x2/3 | x2/3!8va)! x8/3!8va(! x2/3!8va)! | %29
[M:2/8] x2 |[M:4/8]!8va(! x2/3!8va)! x8/3!8va(! x2/3 |[M:3/8] x/!8va)! x5/2 |[M:4/8] x4 | x4 | %34
 [_c_d]4 | [_c_d]4 | [_c_d]2 [f_c']2 |[M:6/8] [_c_d]4 x57/40!8va(! x23/40 |[M:4/8] x!8va)! x3 | %39
 x4 ||[K:Db] x4 | x3!8va(! x/4!8va)! x3/4 | x3!8va(! x/4!8va)! x3/4 |[M:2/8] x2 | %44
[M:4/8] x2!8va(! x2/3!8va)! x4/3 | x2!8va(! x2/3!8va)! x4/3 ||[K:C] x4 |!8va(! x2/3!8va)! x10/3 | %48
 x4 | x4 | x4 | x4 | x2/3!8va(! x/3!8va)! x3 | x2/3!8va(! x/3!8va)! x3 | x4 | x4 ||[K:A] x4 | x4 | %58
 x4 | x4 ||[K:C]!8va(! x2!8va)! x2 |!8va(! x2!8va)! x2 |!8va(! x2!8va)! x2 | %63
!8va(! x2!8va)! x3/2!8va(! x33/64 ||[K:F#] x3/16!8va)! x153/40 |!8va(! x3/16!8va)! x153/40 | x4 | %67
[K:C][M:4/4] x3/2!8va(! x13/2 |[M:5/4] x4!8va)! x89/16!8va(! x23/16 || %69
[K:F#][M:4/8] x3/16!8va)! x153/40 |!8va(! x3/16!8va)! x153/40 | x4 ||[K:C] x4 | %73
 x5/4!8va(! x7/4!8va)! x | x4 | x4 | x4 | x4 | x4 | x4 ||[K:F] x4 | x4 | x2 z/ x/[K:bass] x | %83
[K:treble] x4 | x4 | x4 |[M:6/8]!8va(! x2!8va)! x!8va(! x2!8va)! x | %87
!8va(! x2!8va)! x!8va(! x2!8va)! x ||[K:C][M:4/8] x2!8va(! x19/48!8va)! x19/16[K:bass] x23/24 | %89
[K:treble] x4 | x4 | x4 | x4 | x4 | x4 | x4 | x4 | x2!8va(! x2 | x5/2!8va)! x3/2 | x4 |] %100
V:5
 x4 | x4 | x4 | x4 | x4 | x4 | x4 | x4 | x4 | x4 | x4 | x4 | x4 | x4 | x4 | x4 | x4 | x4 | x4 | %19
 x4 | x4 | x4 | x4 | x4 | x4 | x4 |!8va(! x2/3!8va)! x8/3!8va(! x2/3 | x2/3!8va)! x8/3!8va(! x2/3 | %28
 x2/3!8va)! x8/3!8va(! x2/3!8va)! |[M:2/8] x2 |[M:4/8]!8va(! x2/3!8va)! x8/3!8va(! x2/3 | %31
[M:3/8] x/!8va)! x5/2 |[M:4/8] x4 | x4 | x4 | x4 | x4 |[M:6/8] x217/40!8va(! x23/40 | %38
[M:4/8] x!8va)! x5/2[K:bass] x/ | x4 ||[K:Db] x4 | x4 | x4 |[M:2/8] x3/4[K:treble] x5/4 | %44
[M:4/8] x4 | x4 ||[K:C] x4 | x4 | x4 | x4 | x4 | x4 | x2/3!8va(! x/3!8va)! x3 | %53
 x2/3!8va(! x/3!8va)! x3 | x4 | x4 ||[K:A] x4/3[K:bass] x2[K:treble] x2/3 | %57
 x4/3[K:bass] x2[K:treble] x43/64 | x4/3[K:bass] x2[K:treble] x2/3 | %59
 x4/3[K:bass] x2[K:treble] x2/3 ||[K:C] x[K:bass] x3 | x[K:bass] x3 | x2[K:treble] x2 | %63
[K:bass] x2[K:treble] x2 ||[K:F#] x27/32[K:bass] x19/6 |[K:treble] x27/32[K:bass] x19/6 | %66
[K:treble] x4 |[K:C][M:4/4] x3/2!8va(! x/!8va)! x2!8va(! x4 |[M:5/4] x4!8va)! x7 || %69
[K:F#][M:4/8] x27/32[K:bass] x19/6 |[K:treble] x27/32[K:bass] x19/6 |[K:treble] x4 ||[K:C] x4 | %73
 x4 | x4 | x4 | x4 | x2[K:bass] x2 | x4 | x4 ||[K:F]!8vb(! x9/32!8vb)! x43/32[K:treble] x143/60 | %81
[K:bass]!8vb(! x9/32!8vb)! x43/32[K:treble] x143/60 | %82
 x2 z/[K:bass]!p! (6:4:6(B,/8[I:staff -1](B/8[I:staff +1]_A,/8[I:staff -1]_A/8[I:staff +1]_D,/8)[I:staff -1]_D/8)[I:staff +1] (6:4:6(B,,/8[I:staff -1](B,/8[I:staff +1]_A,,/8[I:staff -1]_A,/8[I:staff +1]_D,,/8)[I:staff -1]_D,/8)[I:staff +1] (6:4:6(B,,,/8[I:staff -1](B,,/8[I:staff +1]_A,,,/8[I:staff -1]_A,,/8[I:staff +1]_D,,,/8)[I:staff -1]_D,,/8) | %83
!8vb(! x9/32!8vb)! x43/32[I:staff +1][K:treble] x143/60 | %84
[K:bass]!8vb(! x9/32!8vb)! x43/32[K:treble] x143/60 | x4 |[M:6/8] x6 | x6 || %88
[K:C][M:4/8] x2!8va(! x13/32!8va)! x49/40[K:bass] x29/32 | x4 | x4 | x4 | x4 | x4 |[K:treble] x4 | %95
 x4 | x4 | !tenuto![_A,_DF] x x2 | x4 | x4 |] %100
V:6
 x4 | x4 | x4 | x4 | x4 | x4 | x2[K:bass] x[K:treble] x | x4 | x2[K:bass] x[K:treble] x | x4 | x4 | %11
 x4 | x4 | x4 | x4 | x4 | x4 |[K:bass]!8vb(! x!8vb)! x3 | x4 | x4 | x4 |[K:treble] x4 | x4 | x4 | %24
 x4 | x4 | x4 | x4 | x4 |[M:2/8] x2 |[M:4/8] x4 |[M:3/8][K:bass] x3 |[M:4/8] x4 | x4 | x4 | x4 | %36
 x4 |[M:6/8] x6 |[M:4/8] x4 | x4 ||[K:Db] x4 | x4 | x4 |[M:2/8] x2 |[M:4/8] x4 | x4 || %46
[K:C][K:treble] x4 | x4 | x4 | x4 | x4 |[K:bass] x4 | x5/3!8vb(! x7/3!8vb)! | %53
 x5/3!8vb(! x7/3!8vb)! | x4 | x4 ||[K:A] x4 | x4 | x4 | x4 ||[K:C]!8vb(! x2!8vb)! x2 | %61
!8vb(! x2!8vb)! x2 |!8vb(! x2!8vb)! x2 |!8vb(! x2!8vb)! x2 ||[K:F#] x4 | x4 | x4 |[K:C][M:4/4] x8 | %68
[M:5/4] x11 ||[K:F#][M:4/8] x4 | x4 | x4 ||[K:C] x4 | x4 | x4 | x4 | x4 | x4 | x4 | x4 || %80
[K:F] x3!8vb(! x!8vb)! | x4 | x4 | x3!8vb(! x!8vb)! | x4 | x4 |[M:6/8] x6 | x6 || %88
[K:C][M:4/8]!8vb(! x2!8vb)! x5/2 | x4 | x4 |!8vb(!{/_A,,,} (!///-!_D,,,2 _A,,,2) | %92
{/=B,,,_B,,,=A,,,_A,,,} (!///-!_D,,,2 A,,,2) | (!///-!_D,,,2 _A,,,2) | (!///-!_D,,,2 _A,,,2) | %95
 (!///-!_D,,,2 _A,,,2) | (!///-!_D,,,2 _A,,,2) | (!///-!_D,,,2 _A,,,2) | (!///-!_D,,,2 _A,,,2) | %99
 ._D,,,!8vb)! z z2 |] %100

